Resources/Public/Icons/ContentElements/News/LatestNewsArticlesContentElement.svg

<?xml version="1.0" encoding="UTF-8" standalone="no"?><!DOCTYPE svg PUBLIC "-//W3C//DTD SVG 1.1//EN" "http://www.w3.org/Graphics/SVG/1.1/DTD/svg11.dtd"><svg width="100%" height="100%" viewBox="0 0 512 512" version="1.1" xmlns="http://www.w3.org/2000/svg" xmlns:xlink="http://www.w3.org/1999/xlink" xml:space="preserve" style="fill-rule:evenodd;clip-rule:evenodd;stroke-linejoin:round;stroke-miterlimit:1.41421;"><g id="Icon"><path d="M467.862,512c-24.373,0 -44.138,-19.765 -44.138,-44.138l0,-185.379l70.541,0c9.799,0 17.735,7.936 17.735,17.735l0,167.645c0,24.372 -19.765,44.137 -44.138,44.137" style="fill:#cdcfcf;fill-rule:nonzero;"/><path d="M423.724,467.862l0,-44.138l0,-211.862l0,-194.127c0,-9.799 -7.936,-17.735 -17.734,-17.735l-388.255,0c-9.799,0 -17.735,7.936 -17.735,17.735l0,476.531c0,9.798 7.936,17.734 17.735,17.734l450.127,0c-24.373,0 -44.138,-19.765 -44.138,-44.138" style="fill:#ecf1f1;fill-rule:nonzero;"/><g><path d="M44.138,203.034l211.862,0l0,-158.896l-211.862,0l0,158.896Z" style="fill:#ff8700;fill-rule:nonzero;"/><path d="M370.759,61.793l-44.138,0c-4.873,0 -8.828,-3.955 -8.828,-8.828c0,-4.873 3.955,-8.828 8.828,-8.828l44.138,0c4.873,0 8.828,3.955 8.828,8.828c0,4.873 -3.956,8.828 -8.828,8.828" style="fill:#cdcfcf;fill-rule:nonzero;"/><path d="M379.586,105.931l-79.448,0c-4.873,0 -8.828,-3.955 -8.828,-8.828c0,-4.873 3.955,-8.828 8.828,-8.828l79.448,0c4.873,0 8.828,3.955 8.828,8.828c0,4.873 -3.955,8.828 -8.828,8.828" style="fill:#cdcfcf;fill-rule:nonzero;"/><path d="M353.103,150.069l-35.31,0c-4.873,0 -8.828,-3.955 -8.828,-8.828c0,-4.873 3.955,-8.828 8.828,-8.828l35.31,0c4.873,0 8.828,3.955 8.828,8.828c0,4.873 -3.955,8.828 -8.828,8.828" style="fill:#cdcfcf;fill-rule:nonzero;"/><path d="M44.138,282.483l335.448,0l0,-35.311l-335.448,0l0,35.311Z" style="fill:#cdcfcf;fill-rule:nonzero;"/><path d="M220.69,335.448l-176.552,0c-4.873,0 -8.828,-3.955 -8.828,-8.828c0,-4.873 3.955,-8.828 8.828,-8.828l176.552,0c4.873,0 8.828,3.955 8.828,8.828c-0.001,4.873 -3.956,8.828 -8.828,8.828" style="fill:#cdcfcf;fill-rule:nonzero;"/><path d="M379.586,335.448l-105.931,0c-4.873,0 -8.828,-3.955 -8.828,-8.828c0,-4.873 3.955,-8.828 8.828,-8.828l105.931,0c4.873,0 8.828,3.955 8.828,8.828c0,4.873 -3.955,8.828 -8.828,8.828" style="fill:#cdcfcf;fill-rule:nonzero;"/><path d="M326.621,379.586l-70.621,0c-4.873,0 -8.828,-3.955 -8.828,-8.828c0,-4.873 3.955,-8.828 8.828,-8.828l70.621,0c4.873,0 8.828,3.955 8.828,8.828c-0.001,4.873 -3.956,8.828 -8.828,8.828" style="fill:#cdcfcf;fill-rule:nonzero;"/><path d="M370.759,423.724l-97.103,0c-4.873,0 -8.828,-3.955 -8.828,-8.828c0,-4.873 3.955,-8.828 8.828,-8.828l97.103,0c4.873,0 8.828,3.955 8.828,8.828c0,4.873 -3.956,8.828 -8.828,8.828" style="fill:#cdcfcf;fill-rule:nonzero;"/><path d="M379.586,467.862l-123.586,0c-4.873,0 -8.828,-3.955 -8.828,-8.828c0,-4.873 3.955,-8.828 8.828,-8.828l123.586,0c4.873,0 8.828,3.955 8.828,8.828c0,4.873 -3.955,8.828 -8.828,8.828" style="fill:#cdcfcf;fill-rule:nonzero;"/><path d="M176.552,467.862l-123.586,0c-4.873,0 -8.828,-3.955 -8.828,-8.828c0,-4.873 3.955,-8.828 8.828,-8.828l123.586,0c4.873,0 8.828,3.955 8.828,8.828c0,4.873 -3.955,8.828 -8.828,8.828" style="fill:#cdcfcf;fill-rule:nonzero;"/><path d="M176.552,423.724l-97.104,0c-4.873,0 -8.828,-3.955 -8.828,-8.828c0,-4.873 3.955,-8.828 8.828,-8.828l97.103,0c4.873,0 8.828,3.955 8.828,8.828c0,4.873 -3.954,8.828 -8.827,8.828" style="fill:#cdcfcf;fill-rule:nonzero;"/><path d="M194.207,379.586l-123.586,0c-4.873,0 -8.828,-3.955 -8.828,-8.828c0,-4.873 3.955,-8.828 8.828,-8.828l123.586,0c4.873,0 8.828,3.955 8.828,8.828c-0.001,4.873 -3.955,8.828 -8.828,8.828" style="fill:#cdcfcf;fill-rule:nonzero;"/><path d="M361.931,203.034l-61.793,0c-4.873,0 -8.828,-3.955 -8.828,-8.828c0,-4.873 3.955,-8.828 8.828,-8.828l61.793,0c4.873,0 8.828,3.955 8.828,8.828c0,4.873 -3.955,8.828 -8.828,8.828" style="fill:#cdcfcf;fill-rule:nonzero;"/></g></g></svg>

<?xml version="1.0" encoding="iso-8859-1"?>
<!-- Generator: Adobe Illustrator 19.0.0, SVG Export Plug-In . SVG Version: 6.00 Build 0)  -->
<svg version="1.1" id="Layer_1" xmlns="http://www.w3.org/2000/svg" xmlns:xlink="http://www.w3.org/1999/xlink" x="0px" y="0px"
	 viewBox="0 0 512 512" style="enable-background:new 0 0 512 512;" xml:space="preserve">
<path style="fill:#CDCFCF;" d="M467.862,512L467.862,512c-24.373,0-44.138-19.765-44.138-44.138V282.483h70.541
	c9.799,0,17.735,7.936,17.735,17.735v167.645C512,492.235,492.235,512,467.862,512"/>
<path style="fill:#ECF1F1;" d="M423.724,467.862v-44.138V211.862V17.735C423.724,7.936,415.788,0,405.99,0H17.735
	C7.936,0,0,7.936,0,17.735v476.531C0,504.064,7.936,512,17.735,512h450.127C443.489,512,423.724,492.235,423.724,467.862"/>
<g>
	<polygon style="fill:#CDCFCF;" points="44.138,203.034 256,203.034 256,44.138 44.138,44.138 	"/>
	<path style="fill:#CDCFCF;" d="M370.759,61.793h-44.138c-4.873,0-8.828-3.955-8.828-8.828s3.955-8.828,8.828-8.828h44.138
		c4.873,0,8.828,3.955,8.828,8.828S375.631,61.793,370.759,61.793"/>
	<path style="fill:#CDCFCF;" d="M379.586,105.931h-79.448c-4.873,0-8.828-3.955-8.828-8.828s3.955-8.828,8.828-8.828h79.448
		c4.873,0,8.828,3.955,8.828,8.828S384.459,105.931,379.586,105.931"/>
	<path style="fill:#CDCFCF;" d="M353.103,150.069h-35.31c-4.873,0-8.828-3.955-8.828-8.828s3.955-8.828,8.828-8.828h35.31
		c4.873,0,8.828,3.955,8.828,8.828S357.976,150.069,353.103,150.069"/>
	<polygon style="fill:#CDCFCF;" points="44.138,282.483 379.586,282.483 379.586,247.172 44.138,247.172 	"/>
	<path style="fill:#CDCFCF;" d="M220.69,335.448H44.138c-4.873,0-8.828-3.955-8.828-8.828c0-4.873,3.955-8.828,8.828-8.828H220.69
		c4.873,0,8.828,3.955,8.828,8.828C229.517,331.493,225.562,335.448,220.69,335.448"/>
	<path style="fill:#CDCFCF;" d="M379.586,335.448H273.655c-4.873,0-8.828-3.955-8.828-8.828c0-4.873,3.955-8.828,8.828-8.828
		h105.931c4.873,0,8.828,3.955,8.828,8.828C388.414,331.493,384.459,335.448,379.586,335.448"/>
	<path style="fill:#CDCFCF;" d="M326.621,379.586H256c-4.873,0-8.828-3.955-8.828-8.828c0-4.873,3.955-8.828,8.828-8.828h70.621
		c4.873,0,8.828,3.955,8.828,8.828C335.448,375.631,331.493,379.586,326.621,379.586"/>
	<path style="fill:#CDCFCF;" d="M370.759,423.724h-97.103c-4.873,0-8.828-3.955-8.828-8.828s3.955-8.828,8.828-8.828h97.103
		c4.873,0,8.828,3.955,8.828,8.828S375.631,423.724,370.759,423.724"/>
	<path style="fill:#CDCFCF;" d="M379.586,467.862H256c-4.873,0-8.828-3.955-8.828-8.828s3.955-8.828,8.828-8.828h123.586
		c4.873,0,8.828,3.955,8.828,8.828S384.459,467.862,379.586,467.862"/>
	<path style="fill:#CDCFCF;" d="M176.552,467.862H52.966c-4.873,0-8.828-3.955-8.828-8.828s3.955-8.828,8.828-8.828h123.586
		c4.873,0,8.828,3.955,8.828,8.828S181.425,467.862,176.552,467.862"/>
	<path style="fill:#CDCFCF;" d="M176.552,423.724H79.448c-4.873,0-8.828-3.955-8.828-8.828s3.955-8.828,8.828-8.828h97.103
		c4.873,0,8.828,3.955,8.828,8.828S181.425,423.724,176.552,423.724"/>
	<path style="fill:#CDCFCF;" d="M194.207,379.586H70.621c-4.873,0-8.828-3.955-8.828-8.828c0-4.873,3.955-8.828,8.828-8.828h123.586
		c4.873,0,8.828,3.955,8.828,8.828C203.034,375.631,199.08,379.586,194.207,379.586"/>
	<path style="fill:#CDCFCF;" d="M361.931,203.034h-61.793c-4.873,0-8.828-3.955-8.828-8.828s3.955-8.828,8.828-8.828h61.793
		c4.873,0,8.828,3.955,8.828,8.828S366.804,203.034,361.931,203.034"/>
</g>
<g>
</g>
<g>
</g>
<g>
</g>
<g>
</g>
<g>
</g>
<g>
</g>
<g>
</g>
<g>
</g>
<g>
</g>
<g>
</g>
<g>
</g>
<g>
</g>
<g>
</g>
<g>
</g>
<g>
</g>
</svg>
